svg/Outline/arrow-forward-circle.svg

<svg viewBox="0 0 24 24" xmlns="http://www.w3.org/2000/svg" width="24" height="24"><path d="M11.67 7.17A1 1 0 0 1 13 7.1l.08.07 3 3q.29.29.5.53.26.26.41.7a2 2 0 0 1 0 1.23q-.16.42-.4.68l-.51.54-3 3a1 1 0 0 1-1.41-1.42L14.1 13h-6l-.1-.01A1 1 0 0 1 8 11h6.08l-2.41-2.41-.07-.08a1 1 0 0 1 .07-1.34"/><path fill-rule="evenodd" d="M12 1A11 11 0 1 1 12 23A11 11 0 0 1 12 1M12 2.5A9.5 9.5 0 1 0 12 21.5A9.5 9.5 0 0 0 12 2.5" clip-rule="evenodd"/></svg>

<svg viewBox="0 0 24 24" xmlns="http://www.w3.org/2000/svg" width="24" height="24"><path d="M11.67 7.17A1 1 0 0 1 13 7.1L16.08 10.17Q16.37 10.46 16.58 10.7Q16.84 10.96 16.99 11.4A2 2 0 0 1 16.99 12.63Q16.83 13.05 16.59 13.31L13.08 16.85A1 1 0 0 1 11.67 15.43L14.1 13L8 12.99A1 1 0 0 1 8 11L14.08 11L11.6 8.51A1 1 0 0 1 11.67 7.17"/><path fill-rule="evenodd" d="M12 1A11 11 0 1 1 12 23A11 11 0 0 1 12 1M12 2.5A9.5 9.5 0 1 0 12 21.5A9.5 9.5 0 0 0 12 2.5" clip-rule="evenodd"/></svg>
